lib/flags/m/GE.svg

<svg xmlns="http://www.w3.org/2000/svg" fill="none" viewBox="0 0 20 15"><mask id="GE_svg__a" width="20" height="15" x="0" y="0" mask-type="alpha" maskUnits="userSpaceOnUse"><path fill="#fff" d="M0 0H20V15H0z"/></mask><g mask="url(#GE_svg__a)"><path fill="#F7FCFF" fill-rule="evenodd" d="M0 0V15H20V0H0Z" clip-rule="evenodd"/><mask id="GE_svg__b" width="20" height="15" x="0" y="0" mask-type="alpha" maskUnits="userSpaceOnUse"><path fill="#fff" fill-rule="evenodd" d="M0 0V15H20V0H0Z" clip-rule="evenodd"/></mask><g fill="#E31D1C" fill-rule="evenodd" clip-rule="evenodd" mask="url(#GE_svg__b)"><path d="M8.75 0H11.25V6.25H20V8.75H11.25V15H8.75V8.75H0V6.25H8.75V0Z"/><path d="M6.24918 10.7637 7.625 10.625V11.875C7.625 11.875 6.24918 11.7889 6.24918 11.8137 6.24918 11.8386 6.375 13.125 6.375 13.125H5.125L5.22514 11.875H3.875V10.625L5.22514 10.7637 5.125 9.375H6.375L6.24918 10.7637zM6.24918 3.26372 7.625 3.125V4.375C7.625 4.375 6.24918 4.28885 6.24918 4.31372 6.24918 4.33859 6.375 5.625 6.375 5.625H5.125L5.22514 4.375H3.875V3.125L5.22514 3.26372 5.125 1.875H6.375L6.24918 3.26372zM14.9992 3.26372 16.375 3.125V4.375C16.375 4.375 14.9992 4.28885 14.9992 4.31372 14.9992 4.33859 15.125 5.625 15.125 5.625H13.875L13.9751 4.375H12.625V3.125L13.9751 3.26372 13.875 1.875H15.125L14.9992 3.26372zM14.9992 10.7637 16.375 10.625V11.875C16.375 11.875 14.9992 11.7889 14.9992 11.8137 14.9992 11.8386 15.125 13.125 15.125 13.125H13.875L13.9751 11.875H12.625V10.625L13.9751 10.7637 13.875 9.375H15.125L14.9992 10.7637z"/></g></g></svg>

<svg xmlns="http://www.w3.org/2000/svg" fill="none" viewBox="0 0 20 15"><mask id="GE_svg__a" width="20" height="15" x="0" y="0" maskUnits="userSpaceOnUse"><path fill="#fff" d="M0 0h20v15H0z"/></mask><g mask="url(#GE_svg__a)"><path fill="#F7FCFF" fill-rule="evenodd" d="M0 0v15h20V0H0z" clip-rule="evenodd"/><mask id="GE_svg__b" width="20" height="15" x="0" y="0" maskUnits="userSpaceOnUse"><path fill="#fff" fill-rule="evenodd" d="M0 0v15h20V0H0z" clip-rule="evenodd"/></mask><g fill="#E31D1C" fill-rule="evenodd" clip-rule="evenodd" mask="url(#GE_svg__b)"><path d="M8.75 0h2.5v6.25H20v2.5h-8.75V15h-2.5V8.75H0v-2.5h8.75V0z"/><path d="M6.25 10.764l1.375-.139v1.25s-1.376-.086-1.376-.061c0 .025.126 1.311.126 1.311h-1.25l.1-1.25h-1.35v-1.25l1.35.139-.1-1.389h1.25l-.126 1.389zm0-7.5l1.375-.139v1.25s-1.376-.086-1.376-.061c0 .025.126 1.311.126 1.311h-1.25l.1-1.25h-1.35v-1.25l1.35.139-.1-1.389h1.25l-.126 1.389zm8.75 0l1.375-.139v1.25s-1.376-.086-1.376-.061c0 .025.126 1.311.126 1.311h-1.25l.1-1.25h-1.35v-1.25l1.35.139-.1-1.389h1.25l-.126 1.389zm0 7.5l1.375-.139v1.25s-1.376-.086-1.376-.061c0 .025.126 1.311.126 1.311h-1.25l.1-1.25h-1.35v-1.25l1.35.139-.1-1.389h1.25l-.126 1.389z"/></g></g></svg>
